assets/Hugging face/Flat/hugging_face_flat.svg

<svg width="32" height="32" viewBox="0 0 32 32" fill="none" xmlns="http://www.w3.org/2000/svg">
<path d="M15.9989 29.9978C25.3333 29.9978 29.9978 23.7303 29.9978 15.9989C29.9978 8.26751 25.3333 2 15.9989 2C6.66443 2 2 8.26751 2 15.9989C2 23.7303 6.66443 29.9978 15.9989 29.9978Z" fill="#FFB02E"/>
<path d="M3.24818 18.3415C3.04896 18.5692 2.97151 18.8617 3.01052 19.1395C2.60047 18.8959 2.06253 18.9747 1.7415 19.3492C1.38208 19.7685 1.43064 20.3998 1.84997 20.7593L2.14244 21.01C1.81065 20.9628 1.46283 21.0835 1.23254 21.3598C0.878972 21.7841 0.936296 22.4147 1.36057 22.7682L3.34567 24.4225L3.22002 24.3597C2.79046 24.1449 2.27166 24.2291 1.93207 24.5687C1.44454 25.0562 1.51115 25.8645 2.07355 26.2634C3.36623 27.1802 5.09329 28.3951 6.00072 29C7.50072 30 9.21191 30.3417 11.0008 29C12.0018 28.2493 13.2659 25.9384 11.936 23.6345C11.6837 23.1975 11.4577 22.7391 11.3641 22.2433C10.9526 20.0635 10.3388 17.8312 9.00081 18.5C8.27599 18.8624 8.33914 19.4874 8.42881 20.375C8.46287 20.7121 8.50076 21.0871 8.50076 21.5L8.42168 21.5396L4.65926 18.2474C4.24363 17.8838 3.61186 17.9259 3.24818 18.3415Z" fill="#FF822D"/>
<path d="M28.7527 18.3415C28.9519 18.5692 29.0293 18.8617 28.9903 19.1395C29.4004 18.8959 29.9383 18.9747 30.2594 19.3492C30.6188 19.7685 30.5702 20.3998 30.1509 20.7593L29.8584 21.01C30.1902 20.9628 30.538 21.0835 30.7683 21.3598C31.1219 21.7841 31.0646 22.4147 30.6403 22.7682L28.6552 24.4225L28.7808 24.3597C29.2104 24.1449 29.7292 24.2291 30.0688 24.5687C30.5563 25.0562 30.4897 25.8645 29.9273 26.2634C28.6346 27.1802 26.9076 28.3951 26.0001 29C24.5001 30 22.7889 30.3417 21.0001 29C19.9991 28.2493 18.7349 25.9384 20.0649 23.6345C20.3171 23.1975 20.5431 22.7391 20.6367 22.2433C21.0483 20.0635 21.6621 17.8312 23 18.5C23.7249 18.8624 23.6617 19.4874 23.572 20.375C23.538 20.7121 23.5001 21.0871 23.5001 21.5L23.5792 21.5396L27.3416 18.2474C27.7572 17.8838 28.389 17.9259 28.7527 18.3415Z" fill="#FF822D"/>
<path d="M7 14.5C7 15.8807 6.10457 17 5 17C3.89543 17 3 15.8807 3 14.5C3 13.1193 3.89543 12 5 12C6.10457 12 7 13.1193 7 14.5Z" fill="#FF6723"/>
<path d="M29 14.5C29 15.8807 28.1046 17 27 17C25.8954 17 25 15.8807 25 14.5C25 13.1193 25.8954 12 27 12C28.1046 12 29 13.1193 29 14.5Z" fill="#FF6723"/>
<path d="M9.34896 10.4125C9.13971 10.6405 9.02964 10.9436 8.98156 11.1909C8.87614 11.733 8.3512 12.087 7.80907 11.9816C7.26694 11.8762 6.91291 11.3513 7.01833 10.8091C7.10696 10.3533 7.32826 9.65637 7.87551 9.06013C8.45269 8.4313 9.31564 8 10.4999 8C11.6955 8 12.562 8.45218 13.1357 9.08196C13.6799 9.6794 13.9062 10.374 13.9852 10.8289C14.0797 11.373 13.7152 11.8908 13.171 11.9853C12.6269 12.0797 12.1092 11.7152 12.0147 11.1711C11.9804 10.9737 11.8753 10.6683 11.6572 10.4288C11.4685 10.2216 11.1417 10 10.4999 10C9.84698 10 9.52829 10.2171 9.34896 10.4125Z" fill="#402A32"/>
<path d="M20.3492 10.4125C20.14 10.6405 20.0299 10.9436 19.9818 11.1909C19.8764 11.733 19.3514 12.087 18.8093 11.9816C18.2672 11.8762 17.9132 11.3513 18.0186 10.8091C18.1072 10.3533 18.3285 9.65637 18.8758 9.06013C19.4529 8.4313 20.3159 8 21.5002 8C22.6957 8 23.5623 8.45218 24.1359 9.08196C24.6802 9.6794 24.9064 10.374 24.9854 10.8289C25.0799 11.373 24.7154 11.8908 24.1713 11.9853C23.6271 12.0797 23.1094 11.7152 23.0149 11.1711C22.9807 10.9737 22.8756 10.6683 22.6574 10.4288C22.4687 10.2216 22.1419 10 21.5002 10C20.8472 10 20.5285 10.2171 20.3492 10.4125Z" fill="#402A32"/>
<path d="M9.80006 15.4C9.46869 14.9582 8.84189 14.8686 8.40006 15.2C7.95823 15.5314 7.86869 16.1582 8.20006 16.6C8.90206 17.536 11.2079 19.5 16.0001 19.5C20.7922 19.5 23.0981 17.536 23.8001 16.6C24.1314 16.1582 24.0419 15.5314 23.6001 15.2C23.1582 14.8686 22.5314 14.9582 22.2001 15.4C21.9021 15.7973 20.2079 17.5 16.0001 17.5C11.7922 17.5 10.0981 15.7973 9.80006 15.4Z" fill="#402A32"/>
</svg>

<svg xmlns="http://www.w3.org/2000/svg" width="32" height="32" fill="none"><path fill="#FFB02E" d="M15.999 29.998c9.334 0 13.999-6.268 13.999-14 0-7.73-4.665-13.998-14-13.998C6.665 2 2 8.268 2 15.999c0 7.731 4.664 13.999 13.999 13.999Z"/><path fill="#FF822D" d="M3.248 18.341a.998.998 0 0 0-.237.799 1 1 0 0 0-1.161 1.62l.292.25a1 1 0 0 0-.781 1.758l1.985 1.654-.126-.062a1.116 1.116 0 0 0-1.146 1.903C3.366 27.18 5.094 28.395 6 29c1.5 1 3.21 1.342 5 0 1-.75 2.265-3.062.935-5.366-.252-.436-.478-.895-.572-1.39-.411-2.18-1.025-4.413-2.363-3.744-.725.362-.662.987-.572 1.875.034.337.072.712.072 1.125l-.08.04-3.762-3.293a1 1 0 0 0-1.41.095ZM28.753 18.341c.199.228.276.52.237.799a1 1 0 0 1 1.16 1.62l-.292.25a1 1 0 0 1 .782 1.758l-1.985 1.654.126-.062a1.116 1.116 0 0 1 1.146 1.903C28.635 27.18 26.907 28.395 26 29c-1.5 1-3.211 1.342-5 0-1-.75-2.265-3.062-.935-5.366.252-.436.478-.895.572-1.39.411-2.18 1.025-4.413 2.363-3.744.725.362.662.987.572 1.875-.034.337-.072.712-.072 1.125l.08.04 3.762-3.293a1 1 0 0 1 1.41.095Z"/><path fill="#FF6723" d="M7 14.5c0 1.38-.895 2.5-2 2.5s-2-1.12-2-2.5.895-2.5 2-2.5 2 1.12 2 2.5ZM29 14.5c0 1.38-.895 2.5-2 2.5s-2-1.12-2-2.5.895-2.5 2-2.5 2 1.12 2 2.5Z"/><path fill="#402A32" d="M9.349 10.412c-.21.228-.32.532-.367.779a1 1 0 0 1-1.964-.382c.089-.456.31-1.153.858-1.749C8.453 8.431 9.316 8 10.5 8c1.195 0 2.062.452 2.636 1.082.544.597.77 1.292.85 1.747a1 1 0 0 1-1.971.342 1.546 1.546 0 0 0-.358-.742C11.47 10.222 11.142 10 10.5 10c-.653 0-.972.217-1.151.412ZM20.35 10.412c-.21.228-.32.532-.368.779a1 1 0 0 1-1.963-.382c.088-.456.31-1.153.857-1.749C19.453 8.431 20.316 8 21.5 8c1.196 0 2.062.452 2.636 1.082.544.597.77 1.292.85 1.747a1 1 0 0 1-1.971.342 1.545 1.545 0 0 0-.358-.742C22.47 10.222 22.142 10 21.5 10c-.653 0-.971.217-1.15.412ZM9.8 15.4a1 1 0 1 0-1.6 1.2c.702.936 3.008 2.9 7.8 2.9s7.098-1.964 7.8-2.9a1 1 0 0 0-1.6-1.2c-.298.397-1.992 2.1-6.2 2.1s-5.902-1.703-6.2-2.1Z"/></svg>
